X: 12464
T: Farewell To Chernobyl
R: reel
M: 4/4
K: Dminor
|:"Dm"D3F ADFA|DFAF EFEC|"Am"A,3C EA,CE|A,CEG AGFE|
"Dm"D3F ADFA|DFAF EFG=B|"C"c2Gc EcGe|1 "Bb"fedc "Am"dcAF:|2 "Bb"fedc "Am"dcAc||
|:"Dm"d2fd gdfd|d/d/d fd efeA|"Bb"B2fB gBff|"C"e2ef edcA|
[1"Dm"d2fd gdfd|d/d/d fd gfef|"Am"a2a2- aggg-|gfff edcA:|
[2"Dm"d2fd Adfd|"Gm"Bdfd Bdfd|"C"cege aged|"Am"gedc dcAF||

